www/assets/icons/bathroom.svg

<svg xmlns="http://www.w3.org/2000/svg" width="24" height="24" viewBox="0 0 24 24" fill='currentColor'><path d="M20 2H4c-1.1 0-2 .9-2 2v16c0 1.1.9 2 2 2h16c1.1 0 2-.9 2-2V4c0-1.1-.9-2-2-2M9 18c-.55 0-1-.45-1-1s.45-1 1-1 1 .45 1 1-.45 1-1 1m0-3c-.55 0-1-.45-1-1s.45-1 1-1 1 .45 1 1-.45 1-1 1m3 3c-.55 0-1-.45-1-1s.45-1 1-1 1 .45 1 1-.45 1-1 1m0-3c-.55 0-1-.45-1-1s.45-1 1-1 1 .45 1 1-.45 1-1 1m3 3c-.55 0-1-.45-1-1s.45-1 1-1 1 .45 1 1-.45 1-1 1m0-3c-.55 0-1-.45-1-1s.45-1 1-1 1 .45 1 1-.45 1-1 1m2-3H7v-1c0-2.76 2.24-5 5-5s5 2.24 5 5z"/></svg>

<svg width="24" height="24" viewBox="0 0 24 24" xmlns="http://www.w3.org/2000/svg" fill='currentColor'><path d="M20 2H4C2.9 2 2 2.9 2 4V20C2 21.1 2.9 22 4 22H20C21.1 22 22 21.1 22 20V4C22 2.9 21.1 2 20 2ZM9 18C8.45 18 8 17.55 8 17C8 16.45 8.45 16 9 16C9.55 16 10 16.45 10 17C10 17.55 9.55 18 9 18ZM9 15C8.45 15 8 14.55 8 14C8 13.45 8.45 13 9 13C9.55 13 10 13.45 10 14C10 14.55 9.55 15 9 15ZM12 18C11.45 18 11 17.55 11 17C11 16.45 11.45 16 12 16C12.55 16 13 16.45 13 17C13 17.55 12.55 18 12 18ZM12 15C11.45 15 11 14.55 11 14C11 13.45 11.45 13 12 13C12.55 13 13 13.45 13 14C13 14.55 12.55 15 12 15ZM15 18C14.45 18 14 17.55 14 17C14 16.45 14.45 16 15 16C15.55 16 16 16.45 16 17C16 17.55 15.55 18 15 18ZM15 15C14.45 15 14 14.55 14 14C14 13.45 14.45 13 15 13C15.55 13 16 13.45 16 14C16 14.55 15.55 15 15 15ZM17 12H7V11C7 8.24 9.24 6 12 6C14.76 6 17 8.24 17 11V12Z"/></svg>
